T: Atholl And Breadalbane Gathering, The
M: 4/4
L: 1/8
K: Amix
A/B/|:c2 c/e/d/B/|cA A/A/c/e/|f>e ca/e/|cB BA/B/
c2 c/e/d/B/|cA A/A/c/e/|fa e/f/e/c/|BA A/A/:|
c/d/|e>f ec|a>e f/g/a/f/|eA/c/ e/f/e/A/|cB Bc/d/|
e>f ec|ae f/g/a/f/|eA/c/ e/f/e/c/|BA A/A/:|
A/B/|c2 c/c/e|fa/f/ e/c/A/B/|cA/c/ e/f/A/B/|cB BA/B/|
c2 c/c/e|fa/f/ e/c/A/B/|cA/c/ e/f/e/c/|BA A/A/:|
c/d/|ea/e/ f/g/a/f/|ea/f/ e/c/A/B/|cA/c/ e/f/a/e/|cB Bc/d/|
ea/e/ f/g/a/f/|ea/f/ e/c/A/B/|cA/c/ e/f/e/c/|BA A/A/:|
